X:10765
T:Midnight Stars
R:jig
C:Sean Ryan
S:Natalie McMaster
H:
N:
D:Solo Album #1
Z:Adrian Scahill
M:6/8
L:1/8
K:C
cGE cGE|EDE CEG|cGE cGE|Ddd ded|\
cGE cGE|EDE CEG|cee e2d|1cAA A2B:|2 cAA A2^f||\
gag ged|ecc ceg|aba age|edd d2e|\
gag ged|ecc cde|fed e2d|cAA A3:||
